X:386
T:Bonnie Banks of Ayr, The
C:Robert Burns
B:The Gesto Collection
Z:Nigel Gatherer
M:4/4
L:1/8
K:C
G2|FEDC GEGA|c>de>d c3 B|A>BA>c GA/B/ cA|G<E DC D2 G2|
FEDC GEGA|c>de>d c3 B/A/|GEDC A,3 A|G>AGE C2|]
